X: 26
M:C|
L:1/8
K:Bb
(udc)|B>Fd>c B>Fd>c|B>Fe>d c2(fe)|\
d>fB>d c>eA>c|B>ba>g f>ed>c|
d>f(Bd) c>eA>c|B2d2B2:|
|:(uAB)|c>f=e>g f2(AB)|c>f=e>g f2(AB)|\
c>=eg>b a>gf>e|f>=ef>g f2 (AB)|
|c>f=e>g f2(AB)|c>f=e>g f2(AB)|\
c>=eg>b a>gf>=e|1 f2a2f2:|2 {g}f>=ef>g f>_ed>c|]


